X: 8583
T: Crofter's, The
R: reel
M: 4/4
K: Amixolydian
|:(3ccc Bc A2 BA|(3GGG GA Bded|
c2 Bc (3AAA BA|G2 GB (3ddd ed:|
|:cAeA fAeA|BGBd (3ggg ed|
cAeA fAeA|Beed (3eee ed:|

